X: 66
T: LADY DURHAM'S
%R: strathspey
B: Jean White "100 Popular Hornpipes, Reels, Jigs and Country Dances", Boston 1880 p.29
F: http://www.loc.gov/resource/sm1880.09124.0#seq-1
Z: 2014 John Chambers <jc:trillian.mit.edu>
M: C|
L: 1/16
K: G
% - - - - - - - - - - - - - - - - - - - - - - - - - - - - -
D2 |\
G3Gg3g g3dB3G | GG3G2GB E6 (3EFG |\
D3DD3E F3GA3B | c3AB3G BAGF E3A |
G3G g3g g3dB3G | GG3G2GB E6 (3EFG |\
D3DD3E F3GA3B | (3c2d2e2 d3F G6 :|
|: Bc |\
d3dd3g d3dd2Bc | d3dd3g d6 Bc |\
d3db3a g3fe3d | c3BA3G F3EF3D |
G3Gg3g gbaf gdBG | GG3G2GB E6 (3EFG |\
D3DD3E F3GA3B | (3c2d2e2 d3F G6 H:|
% - - - - - - - - - - - - - - - - - - - - - - - - - - - - -

%%sep 1 1 500
%%sep 1 1 500
